icons/fm-line.svg

<svg
  viewBox="0 0 16 16"
  xmlns="http://www.w3.org/2000/svg"
>
  <path
    d="M 1.0000126,0 C 0.44770756,0 7.8147e-6,0.448 7.8147e-6,1 c 0,0.552 0.4476997453,1 1.0000047853,1 h 3.3438 l 5.7501794,13.406 c 0.157,0.368 0.506,0.594 0.906,0.594 h 4 c 0.552,0 1,-0.448 1,-1 0,-0.552 -0.448,-1 -1,-1 h -3.344 L 5.9063126,0.593994 C 5.7487126,0.225994 5.4001126,0 5.0000126,0 Z"
  />
</svg>

<svg
  viewBox="0 0 16 16"
  xmlns="http://www.w3.org/2000/svg"
>
  <path
    d="M1.00002 0C0.447715 0 1.52588e-05 0.448 1.52588e-05 1C1.52588e-05 1.552 0.447715 2 1.00002 2H4.34382L10.094 15.406C10.251 15.774 10.6 16 11 16H15C15.552 16 16 15.552 16 15C16 14.448 15.552 14 15 14H11.656L5.90632 0.593994C5.74872 0.225994 5.40012 0 5.00002 0H1.00002Z"
  />
</svg>
